assets/img/components/unav-footer.svg

<svg width="273" height="144" viewBox="0 0 273 144" fill="none" xmlns="http://www.w3.org/2000/svg">
<path d="M0.131836 8.17505C0.131836 3.75677 3.71356 0.175049 8.13184 0.175049H264.132C268.55 0.175049 272.132 3.75677 272.132 8.17505V64.175H0.131836V8.17505Z" fill="#EFF6FB"/>
<path d="M0.131836 111.175H272.132V135.175C272.132 139.593 268.55 143.175 264.132 143.175H8.13184C3.71357 143.175 0.131836 139.593 0.131836 135.175V111.175Z" fill="#0E324F"/>
<path d="M21.503 125.915C21.2309 125.844 20.9868 125.644 20.6929 125.644C20.2762 125.597 19.641 125.616 19.194 125.705C18.8758 125.774 18.6207 125.832 18.611 126.189C18.6073 126.505 19.007 126.826 18.9414 127.149C18.798 127.72 18.0753 128.071 17.6138 128.354C17.4947 128.417 17.3016 128.511 17.2214 128.624C17.0878 128.813 17.117 129.392 17.2214 129.394C18.8685 129.399 23.8218 129.401 26.1089 129.4C26.4089 129.425 26.6057 129.637 26.7478 129.913C26.8936 130.165 26.9106 130.497 27.0308 130.749C27.1851 131.014 27.5786 131.124 27.824 131.288C28.1434 131.479 28.441 131.692 28.7884 131.85C28.9803 131.937 29.2256 132.032 29.3423 132.22L29.4091 132.482C29.4018 132.604 29.2402 132.697 29.154 132.761C29.0204 132.861 28.9062 132.972 28.8309 133.125L28.8127 133.367C28.9196 133.537 29.3483 133.372 29.4941 133.324C29.6957 133.256 29.8998 133.165 30.1099 133.129C31.0051 132.97 31.9209 132.835 32.7238 132.41C32.838 132.349 33.0955 132.253 33.127 132.128C33.206 131.817 32.2841 132.114 32.1723 132.15C31.9731 132.22 31.7594 132.215 31.5517 132.246C31.0913 132.325 30.4512 132.456 29.9969 132.47C29.7686 132.495 29.6581 132.32 29.7115 132.094C29.7747 131.811 30.037 131.637 30.0188 131.341C29.9824 130.737 30.1743 130.067 30.1633 129.457C30.1305 128.696 30.4488 127.972 30.4719 127.219C30.4925 126.573 30.5848 125.927 30.5059 125.285C30.4366 124.716 30.2192 124.04 30.2642 123.466C30.2751 123.327 30.297 123.24 30.3358 123.108C30.4949 122.667 30.3443 122.203 30.3455 121.768C30.3468 121.224 30.4439 120.996 30.0953 120.931C29.7467 120.867 28.7689 120.962 28.3924 120.937C27.864 120.952 27.326 120.925 26.8462 121.151C26.2498 121.435 25.7834 121.95 25.3911 122.462C25.1773 122.803 24.7437 122.91 24.525 123.243C24.3027 123.55 24.4849 123.891 24.4971 124.228C24.5117 125.266 24.1509 125.112 23.4841 125.649C23.1962 125.881 22.81 125.926 22.4529 125.933C22.1698 125.94 21.7775 125.987 21.503 125.915Z" fill="#457AA5"/>
<path d="M74.9473 129.175H47.3163C46.0056 129.175 45.1318 128.375 45.1318 127.174C45.1318 125.973 46.0056 125.175 47.3163 125.175H74.9473C76.258 125.175 77.1318 125.973 77.1318 127.174C77.1318 128.375 76.258 129.175 74.9473 129.175Z" fill="#457AA5"/>
<path d="M114.947 129.175H87.3163C86.0056 129.175 85.1318 128.375 85.1318 127.174C85.1318 125.973 86.0056 125.175 87.3163 125.175H114.947C116.258 125.175 117.132 125.973 117.132 127.174C117.132 128.375 116.258 129.175 114.947 129.175Z" fill="#457AA5"/>
<path d="M154.947 129.175H127.316C126.006 129.175 125.132 128.375 125.132 127.174C125.132 125.973 126.006 125.175 127.316 125.175H154.947C156.258 125.175 157.132 125.973 157.132 127.174C157.132 128.375 156.258 129.175 154.947 129.175Z" fill="#457AA5"/>
<rect width="272" height="43" transform="translate(0.131836 66.175)" fill="#EDEDED"/>
<path d="M96.2615 84.175H23.0022C21.2799 84.175 20.1318 82.9744 20.1318 81.1734C20.1318 79.3724 21.28 78.175 23.0022 78.175H96.2615C97.9837 78.175 99.1318 79.3724 99.1318 81.1734C99.1318 82.9744 97.9837 84.175 96.2615 84.175Z" fill="#D0D0CE"/>
<path d="M67.8319 97.175H22.4318C21.0518 97.175 20.1318 96.3751 20.1318 95.1751C20.1318 93.9751 21.0518 93.175 22.4318 93.175H67.8319C69.2119 93.175 70.1318 93.9751 70.1318 95.1751C70.1318 96.3751 69.2119 97.175 67.8319 97.175Z" fill="#D0D0CE"/>
<path d="M124.832 97.175H79.4318C78.0518 97.175 77.1318 96.3751 77.1318 95.1751C77.1318 93.9751 78.0518 93.175 79.4318 93.175H124.832C126.212 93.175 127.132 93.9751 127.132 95.1751C127.132 96.3751 126.212 97.175 124.832 97.175Z" fill="#D0D0CE"/>
<path d="M181.832 97.175H136.432C135.052 97.175 134.132 96.3751 134.132 95.1751C134.132 93.9751 135.052 93.175 136.432 93.175H181.832C183.212 93.175 184.132 93.9751 184.132 95.1751C184.132 96.3751 183.212 97.175 181.832 97.175Z" fill="#D0D0CE"/>
</svg>

<svg xmlns="http://www.w3.org/2000/svg" width="273" height="144" fill="none" viewBox="0 0 273 144"><path fill="#eff6fb" d="M.132 8.175a8 8 0 0 1 8-8h256a8 8 0 0 1 8 8v56h-272z"/><path fill="#0e324f" d="M.132 111.175h272v24a8 8 0 0 1-8 8h-256a8 8 0 0 1-8-8z"/><path fill="#457aa5" d="M21.503 125.915c-.272-.071-.516-.271-.81-.271a5.6 5.6 0 0 0-1.499.061c-.318.069-.573.127-.583.484-.004.316.396.637.33.96-.143.571-.866.922-1.327 1.205-.12.063-.312.157-.393.27-.133.189-.104.768 0 .77 1.648.005 6.6.007 8.888.006.3.025.497.237.639.513.146.252.163.584.283.836.154.265.548.375.793.539.32.191.617.404.964.562.192.087.438.182.554.37l.067.262c-.007.122-.169.215-.255.279-.134.1-.248.211-.323.364l-.018.242c.107.17.535.005.681-.043.202-.068.406-.159.616-.195.895-.159 1.81-.294 2.614-.719.114-.061.372-.157.403-.282.079-.311-.843-.014-.955.022-.199.07-.413.065-.62.096-.46.079-1.1.21-1.555.224-.228.025-.339-.15-.285-.376.063-.283.325-.457.307-.753-.037-.604.155-1.274.144-1.884-.032-.761.286-1.485.309-2.238.02-.646.113-1.292.034-1.934-.07-.569-.287-1.245-.242-1.819.011-.139.033-.226.072-.358.159-.441.008-.905.01-1.34 0-.544.098-.772-.25-.837-.35-.064-1.327.031-1.704.006-.528.015-1.066-.012-1.546.214-.596.284-1.063.799-1.455 1.311-.214.341-.647.448-.866.781-.222.307-.04.648-.028.985.015 1.038-.346.884-1.013 1.421-.288.232-.674.277-1.031.284-.283.007-.675.054-.95-.018M74.947 129.175h-27.63c-1.311 0-2.185-.8-2.185-2.001s.874-1.999 2.184-1.999h27.631c1.311 0 2.185.798 2.185 1.999s-.874 2.001-2.185 2.001M114.947 129.175h-27.63c-1.311 0-2.185-.8-2.185-2.001s.874-1.999 2.184-1.999h27.631c1.311 0 2.185.798 2.185 1.999s-.874 2.001-2.185 2.001M154.947 129.175h-27.631c-1.31 0-2.184-.8-2.184-2.001s.874-1.999 2.184-1.999h27.631c1.311 0 2.185.798 2.185 1.999s-.874 2.001-2.185 2.001"/><path fill="#ededed" d="M.132 66.175h272v43h-272z"/><path fill="#d0d0ce" d="M96.262 84.175h-73.26c-1.722 0-2.87-1.2-2.87-3.002 0-1.8 1.148-2.998 2.87-2.998h73.26c1.722 0 2.87 1.197 2.87 2.998s-1.148 3.002-2.87 3.002M67.832 97.175h-45.4c-1.38 0-2.3-.8-2.3-2s.92-2 2.3-2h45.4c1.38 0 2.3.8 2.3 2s-.92 2-2.3 2M124.832 97.175h-45.4c-1.38 0-2.3-.8-2.3-2s.92-2 2.3-2h45.4c1.38 0 2.3.8 2.3 2s-.92 2-2.3 2M181.832 97.175h-45.4c-1.38 0-2.3-.8-2.3-2s.92-2 2.3-2h45.4c1.38 0 2.3.8 2.3 2s-.92 2-2.3 2"/></svg>
